!!!COM: Palestrina, Giovanni Perluigi da
!!!OPR: Missa Panem nostrum
!!!OMD: Credo
!!!OTL: First Section
**kern	**kern	**kern	**kern	**kern
*Ibass	*Ibarit	*Itenor	*Icalto	*Icant
!Bassus	!Baritone	!Tenor	!Altus	!Cantus
*clefF4	*clefF4	*clefGv2	*clefG2	*clefG2
*k[b-]	*k[b-]	*k[b-]	*k[b-]	*k[b-]
*G:dor	*G:dor	*G:dor	*G:dor	*G:dor
*M4/2	*M4/2	*M4/2	*M4/2	*M4/2
=1	=1	=1	=1	=1
0B-	0r	0d	0f	0b-
=2	=2	=2	=2	=2
1A	0r	1e	1a	1cc
1G	.	1g	1b-	1dd
=3	=3	=3	=3	=3
2d	0r	2f	2a	2dd
2B-	.	2f	2b-	2dd
1c	.	1e	1g	1cc
=4	=4	=4	=4	=4
2A	0r	2e	2a	2cc
2F	.	2f	2a	2cc
2c	.	2g	2cc	2ee-
2c	.	2g	2cc	2ee-
=5	=5	=5	=5	=5
1d	0r	1f	1a	1dd
2A	.	2f	2a	2cc
2B-	.	2d	2f	2b-
=6	=6	=6	=6	=6
1E-	0r	2.e-	1g	4cc
.	.	.	.	4b-
.	.	.	.	1b-
.	.	4d	.	.
1F	.	1c	2.f	.
.	.	.	.	2a
.	.	.	4e-	.
=7	=7	=7	=7	=7
1BB-	0r	1B-	1d	1b-
[1B-	.	2r	2r	[1dd
.	.	[2f	[2b-	.
=8	=8	=8	=8	=8
2B-]	0r	2f]	2b-]	2dd]
2B-	.	2f	2b-	2dd
2B-	.	2f	2b-	2dd
2c	.	2e	2g	2cc
=9	=9	=9	=9	=9
2G	0r	2d	2g	2b-
1B-	.	1d	1f	1b-
2G	.	2e	2g	2b-
=10	=10	=10	=10	=10
0F	0r	2.f	2c	1a
.	.	.	2.cc	.
.	.	4g	.	.
.	.	1a	.	2r
.	.	.	4b-	.
.	.	.	4a	[2ff
.	.	.	4g	.
=11	=11	=11	=11	=11
0r	1F	1r	1a	4ff]
.	.	.	.	4ee
.	.	.	.	4dd
.	.	.	.	4cc
.	1F	2.f	1a	2dd
.	.	.	.	2cc
.	.	4e	.	.
=12	=12	=12	=12	=12
0r	1G	4d	1.g	2b-
.	.	4c	.	.
.	.	2d	.	4g
.	.	.	.	4a
.	1G	1g	.	4b-
.	.	.	.	4cc
.	.	.	2b-	4dd
.	.	.	.	4b-
=13	=13	=13	=13	=13
0r	1A	2e	1a	2cc
.	.	2f	.	1dd
.	1A	2e	1a	.
.	.	2e	.	2cc#
=14	=14	=14	=14	=14
1D	2A	2d	2f#	2dd
.	1A	1d	1f#	1a
1D	.	.	.	.
.	2A	2d	2f#	2a
=15	=15	=15	=15	=15
2G	2G	2d	2g	2b
2G	2G	2d	2g	2b
2C	2G	2e-	2.g	2cc
2C	2G	2e-	.	2cc
.	.	.	4g	.
=16	=16	=16	=16	=16
1G	1B-	1d	2g	1dd
.	.	.	2.b-	.
1G	1B-	[1d	.	2.dd
.	.	.	4a	.
.	.	.	2g	.
.	.	.	.	4cc
=17	=17	=17	=17	=17
2.D	0A	1d]	0f	4dd
.	.	.	.	4ee
.	.	.	.	1ff
4E	.	.	.	.
1F	.	[1c	.	.
.	.	.	.	2cc
=18	=18	=18	=18	=18
2.C	0G	1c]	0g	0ee-
4D	.	.	.	.
1E-	.	1B-	.	.
=19	=19	=19	=19	=19
1BB-	0F	2B-	1b-	2dd
.	.	2.d	.	2.b-
1r	.	.	2r	.
.	.	4d	.	4b-
.	.	2c	[2f	2a
=20	=20	=20	=20	=20
0r	0r	2d	4f]	2b-
.	.	.	4f	.
.	.	2c	2e	2cc
.	.	1B-	2f	1dd
.	.	.	2g	.
=21	=21	=21	=21	=21
0r	0r	1A	2a	2cc#
.	.	.	2f	1dd
.	.	2.A	2.e	.
.	.	.	.	2cc#
.	.	4A	4e	.
=22	=22	=22	=22	=22
0r	1G	2B-	2d	2dd
.	.	1d	1b-	1g
.	1G	.	.	.
.	.	2d	2g	2b-
=23	=23	=23	=23	=23
0r	1F	1.f	2a	4cc
.	.	.	.	4b-
.	.	.	4f	4a
.	.	.	4g	4g
.	1F	.	4a	2f
.	.	.	4b-	.
.	.	2f	4cc	2a
.	.	.	4a	.
=24	=24	=24	=24	=24
0r	1G	4d	2b-	0g
.	.	8c	.	.
.	.	8d	.	.
.	.	2e-	1cc	.
.	1G	1d	.	.
.	.	.	2b	.
=25	=25	=25	=25	=25
2r	1A	2r	1cc	2e
1F	.	1c	.	1a
.	1A	.	2.f	.
2D	.	2d	.	2f
.	.	.	4f	.
=26	=26	=26	=26	=26
2E-	2.G	2B-	2e-	2g
2C	.	2c	2e-	2g
.	4G	.	.	.
2G	1G	2B-	1d	2.b-
[2B-	.	4G	.	.
.	.	4A	.	4cc
=27	=27	=27	=27	=27
4B-]	2G	4B-	2r	1dd
4A	.	4c	.	.
4G	2G	2d	2.b-	.
4F	.	.	.	.
1G	1G	2e-	.	1r
.	.	.	4a	.
.	.	[2d	4g	.
.	.	.	4f	.
=28	=28	=28	=28	=28
2.E-	0r	2d]	2g	1r
.	.	2c	2g	.
4E-	.	.	.	.
1D	.	1d	2f#	2r
.	.	.	2f#	2a
=29	=29	=29	=29	=29
0r	0r	2r	2g	2b
.	.	2G	2g	2b
.	.	2A	1e	1cc#
.	.	2A	.	.
=30	=30	=30	=30	=30
2r	1G	1B	2d	2dd
2G	.	.	2g	2dd
2C	2G	2c	2g	2ee
2C	2G	2c	2g	2ee
=31	=31	=31	=31	=31
2.F	1.F	2c	2.a	1.ff
.	.	2F	.	.
4E	.	.	4g	.
2D	.	2A	2f	.
2D	2F	2B	2d	2ff
=32	=32	=32	=32	=32
2C	2G	2c	2e	1ee
1C	1G	1e	1g	.
.	.	.	.	2r
2C	2G	2e	2g	2cc
=33	=33	=33	=33	=33
1F	1A	0f	1c	2cc
.	.	.	.	1ff
1D	2A	.	2d	.
.	2A	.	2d	2dd
=34	=34	=34	=34	=34
2r	1G	1d	2B-	2dd
2G	.	.	2G	2b-
2E-	1G	2r	1g	2g
2C	.	2c	.	[2ee-
=35	=35	=35	=35	=35
2.E-	1G	2B-	1.g	4ee-]
.	.	.	.	4dd
.	.	2G	.	2b-
4D	.	.	.	.
[1C	1G	2.e-	.	2.cc
.	.	.	2c	.
.	.	4d	.	4b-
=36	=36	=36	=36	=36
1C]	0r	2c	2e-	4a
.	.	.	.	4g
.	.	2B-	2e-	1g
1D	.	1A	1d	.
.	.	.	.	2f#
=37	=37	=37	=37	=37
2r	0r	1G	2.B-	2.g
1G	.	.	.	.
.	.	.	4c	4a
.	.	2r	1d	4b-
.	.	.	.	4a
2G	.	[2d	.	4b-
.	.	.	.	4cc
=38	=38	=38	=38	=38
2B-	0r	2d]	0r	1dd
2B-	.	2d	.	.
1A	.	2f	.	1r
.	.	2f	.	.
=39	=39	=39	=39	=39
2G	0r	1e	0r	0r
1c	.	.	.	.
.	.	2d	.	.
2B-	.	[2g	.	.
=40	=40	=40	=40	=40
2G	0r	2g]	0r	0r
2A	.	2f	.	.
2B-	.	2d	.	.
4c	.	2e	.	.
4B-	.	.	.	.
=41	=41	=41	=41	=41
4A	0r	1.f	0r	0r
4G	.	.	.	.
4F	.	.	.	.
4E	.	.	.	.
2D	.	.	.	.
[2d	.	2f	.	.
=42	=42	=42	=42	=42
2d]	0r	1e	2r	1ee
2c#	.	.	1a	.
1d	.	1d	.	2ff
.	.	.	2b-	2dd
=43	=43	=43	=43	=43
0r	0r	0r	2g	2ee
.	.	.	2a	2ff
.	.	.	2b-	2.gg
.	.	.	[2cc	.
.	.	.	.	4ff
=44	=44	=44	=44	=44
0r	0r	1A	4cc]	4ee
.	.	.	4b-	4dd
.	.	.	4a	2cc
.	.	.	4g	.
.	.	2B-	4f	1dd
.	.	.	8g	.
.	.	.	8a	.
.	.	2G	2b-	.
=45	=45	=45	=45	=45
0r	0r	2A	2a	2cc
.	.	2B-	1g	4b-
.	.	.	.	8a
.	.	.	.	8g
.	.	2c	.	1a
.	.	2d	2f#	.
=46	=46	=46	=46	=46
2r	1B-	2G	0g	2r
2B-	.	2G	.	2dd
2G	2B-	1d	.	2b-
2G	2B-	.	.	2b-
=47	=47	=47	=47	=47
1F	1c	2f	0r	1a
.	.	2F	.	.
2E	2c	2G	.	2g
2E	2c	2G	.	2g
=48	=48	=48	=48	=48
2D	2d	1A	2r	2f#
2D	2d	.	2dd	2f#
2G	2d	1r	2b-	2g
2G	2d	.	2b-	2g
=49	=49	=49	=49	=49
1F#	1d	0r	1a	1a
2G	2d	.	2g	2b-
2G	2d	.	2g	2b-
=50	=50	=50	=50	=50
1A	1c	1r	2.e	2.a
.	.	.	8f	4b-
.	.	.	8g	.
1F	1c	2r	1a	[1cc
.	.	2A	.	.
=51	=51	=51	=51	=51
1C	1e-	0c	0g	2cc]
.	.	.	.	2gg
1C	1e-	.	.	2gg
.	.	.	.	2g
=52	=52	=52	=52	=52
1BB-	1d	1F	2r	2b-
.	.	.	2b-	2.dd
1D	1d	[1F	2a	.
.	.	.	.	4cc
.	.	.	[2f	[2b-
=53	=53	=53	=53	=53
0F	0c	2F]	2f]	2b-]
.	.	2.f	2c	4a
.	.	.	.	4g
.	.	.	1f	1a
.	.	4e-	.	.
.	.	2c	.	.
=54	=54	=54	=54	=54
1BB-	0B-	1d	1f	1b-
1r	.	1r	1r	1r
=55	=55	=55	=55	=55
1B-	0r	1f	1b-	1dd
2B-	.	2f	2b-	2dd
2B-	.	2d	2f	2dd
=56	=56	=56	=56	=56
1E-	0r	1e-	1g	1b-
1G	.	1d	1g	1b-
=57	=57	=57	=57	=57
2F	1c	2f	2cc	2a
2F	.	2f	2a	2cc
2F	2c	2f	2a	2cc
2F	2c	2f	2a	2cc
=58	=58	=58	=58	=58
1BB-	1B-	1f	2.b-	1dd
.	.	.	8a	.
.	.	.	8g	.
1D	1B-	1d	2f	1ff
.	.	.	2d	.
=59	=59	=59	=59	=59
1C	1c	1e	1g	2ee
.	.	.	.	1cc
1F	2c	2r	2r	.
.	2c	[2f	[2a	2cc
=60	=60	=60	=60	=60
0r	1d	2f]	2a]	1a
.	.	2f	2a	.
.	1d	1d	1f	1b-
=61	=61	=61	=61	=61
0r	1c	2e	2g	1cc
.	.	2g	1e	.
.	1c	2g	.	1cc
.	.	[2f	2a	.
=62	=62	=62	=62	=62
0r	0c	2f]	0g	0cc
.	.	4e	.	.
.	.	4d	.	.
.	.	1e	.	.
=63	=63	=63	=63	=63
0F	0r	0f	0a	0cc
=64	=64	=64	=64	=64
0BB-	0r	0f	0b-	0dd
=65	=65	=65	=65	=65
0F	0c	2.f	4a	4cc
.	.	.	4b-	4b-
.	.	.	4cc	4a
.	.	4g	4b-	4g
.	.	1a	4a	4f
.	.	.	4g	4g
.	.	.	4f	2a
.	.	.	4e	.
=66	=66	=66	=66	=66
2.G	0B-	2r	4d	1g
.	.	.	4c	.
.	.	2.g	4B-	.
4F	.	.	4A	.
2.E-	.	.	1G	2r
.	.	4f	.	.
.	.	[2e-	.	[2gg
4D	.	.	.	.
=67	=67	=67	=67	=67
0C	0c	4e-]	[0g	4gg]
.	.	4d	.	4ff
.	.	4c	.	2.ee-
.	.	4d	.	.
.	.	1e-	.	.
.	.	.	.	4dd
.	.	.	.	[2cc
=68	=68	=68	=68	=68
0G	0d	1d	0g]	2cc]
.	.	.	.	4b
.	.	.	.	4a
.	.	[1G	.	2b
.	.	.	.	2b
=69	=69	=69	=69	=69
1E	0c	1G]	1g	[0cc
1F	.	1A	1f	.
=70	=70	=70	=70	=70
0C	0c	0G	0e	0cc]
*-	*-	*-	*-	*-
!!!CDT: 1525/^1526/-1594/2/2
!!!OCY: Italia
!!!AGN: Mass (Tenor)
!!!AST: renaissance, vocal
!!!ASW: Prayer
!!!PWK: Masses, Book 10
!!!RNB: Cadence finals: C
!!!YOR: Le Opere Complete, v. 27, p. 226
!!!YOO: Rome, Italy: Fratelli Scalera
!!!END: 1992//
!!!EED: John Miller
!!!YEC: Copyright 2000, John Miller
!!!YEN: United States of America
!!!YEM: Rights to all derivative electronic formats reserved.
!!!YEM: Refer to licensing agreement for further details.
!!!YEM: This file must be accompanied by the licensing agreement.
!!!YEM: A copy of the licensing agreement may be found at http://www.music-cog.ohio-state.edu/HumdrumDatabases/Palestrina/license.txt
!!!EMD: converted to Humdrum by Bret Aarden
